X:485
T: Butterfly Reel
R: reel
S: Billy McComiskey
D: "Trian II"
M: 4/4
L: 1/8
K: G
B3A GEE2|EBEB dBAd|(3B^cd BA GABe|dBAd BEE2:|
(3B^cd ef gefA|(3B^cd ge dBAd|(3B^cd ef g3a|\
bage dBAd :|
